Schedulr.Test/Pictures/PugetSails.xmp
<?xpacket begin='﻿' id='W5M0MpCehiHzreSzNTczkc9d'?>
<x:xmpmeta xmlns:x='adobe:ns:meta/' x:xmptk='Image::ExifTool 8.59'>
  <rdf:RDF xmlns:rdf='http://www.w3.org/1999/02/22-rdf-syntax-ns#'>

    <rdf:Description rdf:about=''
     xmlns:Iptc4xmpCore='http://iptc.org/std/Iptc4xmpCore/1.0/xmlns/'>
      <Iptc4xmpCore:CreatorContactInfo rdf:parseType='Resource'>
        <Iptc4xmpCore:CiAdrCity>Antwerp</Iptc4xmpCore:CiAdrCity>
        <Iptc4xmpCore:CiAdrCtry>Belgium</Iptc4xmpCore:CiAdrCtry>
        <Iptc4xmpCore:CiUrlWork>http://jelle.druyts.net</Iptc4xmpCore:CiUrlWork>
      </Iptc4xmpCore:CreatorContactInfo>
    </rdf:Description>

    <rdf:Description rdf:about=''
     xmlns:MicrosoftPhoto='http://ns.microsoft.com/photo/1.0'>
      <MicrosoftPhoto:DateAcquired>2007-07-28T18:39:51Z</MicrosoftPhoto:DateAcquired>
      <MicrosoftPhoto:LastKeywordIPTC>
        <rdf:Bag>
          <rdf:li>Arty</rdf:li>
          <rdf:li>Light</rdf:li>
          <rdf:li>Sky</rdf:li>
          <rdf:li>Sun</rdf:li>
          <rdf:li>Sunny Day</rdf:li>
        </rdf:Bag>
      </MicrosoftPhoto:LastKeywordIPTC>
      <MicrosoftPhoto:LastKeywordXMP>
        <rdf:Bag>
          <rdf:li>Arty</rdf:li>
          <rdf:li>Light</rdf:li>
          <rdf:li>Sky</rdf:li>
          <rdf:li>Sun</rdf:li>
          <rdf:li>Sunny Day</rdf:li>
        </rdf:Bag>
      </MicrosoftPhoto:LastKeywordXMP>
    </rdf:Description>

    <rdf:Description rdf:about=''
     xmlns:aux='http://ns.adobe.com/exif/1.0/aux/'>
      <aux:ImageNumber>10658</aux:ImageNumber>
      <aux:Lens>18.0-135.0 mm f/3.5-5.6</aux:Lens>
      <aux:LensInfo>180/10 1350/10 35/10 56/10</aux:LensInfo>
    </rdf:Description>

    <rdf:Description rdf:about=''
     xmlns:dc='http://purl.org/dc/elements/1.1/'>
      <dc:creator>
        <rdf:Seq>
          <rdf:li>Jelle Druyts</rdf:li>
        </rdf:Seq>
      </dc:creator>
      <dc:description>
        <rdf:Alt>
          <rdf:li xml:lang='x-default'>I&#39;m not sure if there was any specific reason to it, but on this particular sunny day in July, the Puget Sound (Seattle, US) was filled with small sailboats.</rdf:li>
        </rdf:Alt>
      </dc:description>
      <dc:rights>
        <rdf:Alt>
          <rdf:li xml:lang='x-default'>Jelle Druyts</rdf:li>
        </rdf:Alt>
      </dc:rights>
      <dc:subject>
        <rdf:Bag>
          <rdf:li>Arty</rdf:li>
          <rdf:li>Light</rdf:li>
          <rdf:li>Sky</rdf:li>
          <rdf:li>Sun</rdf:li>
          <rdf:li>Sunny Day</rdf:li>
        </rdf:Bag>
      </dc:subject>
      <dc:title>
        <rdf:Alt>
          <rdf:li xml:lang='x-default'>Puget Sails</rdf:li>
        </rdf:Alt>
      </dc:title>
    </rdf:Description>

    <rdf:Description rdf:about=''
     xmlns:exif='http://ns.adobe.com/exif/1.0/'>
      <exif:ApertureValue>6643856/1000000</exif:ApertureValue>
      <exif:Contrast>0</exif:Contrast>
      <exif:CustomRendered>0</exif:CustomRendered>
      <exif:DateTimeDigitized>2009-06-27T12:16:15+02:00</exif:DateTimeDigitized>
      <exif:DateTimeOriginal>2009-06-27T12:16:15+02:00</exif:DateTimeOriginal>
      <exif:DigitalZoomRatio>1/1</exif:DigitalZoomRatio>
      <exif:ExifVersion>0221</exif:ExifVersion>
      <exif:ExposureBiasValue>0/6</exif:ExposureBiasValue>
      <exif:ExposureMode>0</exif:ExposureMode>
      <exif:ExposureProgram>0</exif:ExposureProgram>
      <exif:ExposureTime>1/320</exif:ExposureTime>
      <exif:FNumber>10/1</exif:FNumber>
      <exif:FileSource>3</exif:FileSource>
      <exif:Flash exif:Fired="False" />
      <exif:FocalLength>200/10</exif:FocalLength>
      <exif:FocalLengthIn35mmFilm>30</exif:FocalLengthIn35mmFilm>
      <exif:GPSLatitude>47,36.378480N</exif:GPSLatitude>
      <exif:GPSLongitude>122,20.503980W</exif:GPSLongitude>
      <exif:GPSMapDatum>WGS-84</exif:GPSMapDatum>
      <exif:GPSTimeStamp>2009-06-27T12:16:15Z</exif:GPSTimeStamp>
      <exif:GPSVersionID>2.2.0.0</exif:GPSVersionID>
      <exif:GainControl>0</exif:GainControl>
      <exif:ISOSpeedRatings>
        <rdf:Seq>
          <rdf:li>100</rdf:li>
        </rdf:Seq>
      </exif:ISOSpeedRatings>
      <exif:LightSource>0</exif:LightSource>
      <exif:MaxApertureValue>37/10</exif:MaxApertureValue>
      <exif:MeteringMode>5</exif:MeteringMode>
      <exif:Saturation>0</exif:Saturation>
      <exif:SceneCaptureType>1</exif:SceneCaptureType>
      <exif:SceneType>1</exif:SceneType>
      <exif:SensingMethod>2</exif:SensingMethod>
      <exif:Sharpness>2</exif:Sharpness>
      <exif:ShutterSpeedValue>8321928/1000000</exif:ShutterSpeedValue>
      <exif:SubjectDistanceRange>0</exif:SubjectDistanceRange>
      <exif:WhiteBalance>0</exif:WhiteBalance>
    </rdf:Description>

    <rdf:Description rdf:about=''
     xmlns:photoshop='http://ns.adobe.com/photoshop/1.0/'>
      <photoshop:DateCreated>2009-06-27T12:16:15+02:00</photoshop:DateCreated>
      <photoshop:LegacyIPTCDigest>35BC01B81CAF540E1D8DB19FE8000D89</photoshop:LegacyIPTCDigest>
    </rdf:Description>

    <rdf:Description rdf:about=''
     xmlns:tiff='http://ns.adobe.com/tiff/1.0/'>
      <tiff:Artist>Jelle Druyts</tiff:Artist>
      <tiff:ImageLength>2592</tiff:ImageLength>
      <tiff:ImageWidth>3872</tiff:ImageWidth>
      <tiff:Make>NIKON CORPORATION</tiff:Make>
      <tiff:Model>NIKON D80</tiff:Model>
      <tiff:ResolutionUnit>2</tiff:ResolutionUnit>
      <tiff:XResolution>240/1</tiff:XResolution>
      <tiff:YResolution>240/1</tiff:YResolution>
    </rdf:Description>

    <rdf:Description rdf:about=''
     xmlns:xap='http://ns.adobe.com/xap/1.0/'>
      <xap:CreatorTool>Adobe Photoshop Lightroom</xap:CreatorTool>
      <xap:Label>5-Published</xap:Label>
      <xap:MetadataDate>2007-12-30T20:44:53.747+01:00</xap:MetadataDate>
      <xap:ModifyDate>2009-06-27T12:16:15+02:00</xap:ModifyDate>
    </rdf:Description>

    <rdf:Description rdf:about=''
     xmlns:xapMM='http://ns.adobe.com/xap/1.0/mm/'>
      <xapMM:InstanceID>uuid:faf5bdd5-ba3d-11da-ad31-d33d75182f1b</xapMM:InstanceID>
    </rdf:Description>

    <rdf:Description rdf:about=''
     xmlns:crs='http://ns.adobe.com/camera-raw-settings/1.0/'>
      <crs:AlreadyApplied>True</crs:AlreadyApplied>
      <crs:BlueHue>0</crs:BlueHue>
      <crs:BlueSaturation>0</crs:BlueSaturation>
      <crs:Brightness>+50</crs:Brightness>
      <crs:CameraProfile>ACR 3.6</crs:CameraProfile>
      <crs:CameraProfileDigest>541CA39A99F8BC0D9C4289D22330A800</crs:CameraProfileDigest>
      <crs:ChromaticAberrationB>0</crs:ChromaticAberrationB>
      <crs:ChromaticAberrationR>0</crs:ChromaticAberrationR>
      <crs:Clarity>50</crs:Clarity>
      <crs:ColorNoiseReduction>25</crs:ColorNoiseReduction>
      <crs:Contrast>+25</crs:Contrast>
      <crs:ConvertToGrayscale>False</crs:ConvertToGrayscale>
      <crs:Defringe>0</crs:Defringe>
      <crs:Exposure>0.00</crs:Exposure>
      <crs:FillLight>0</crs:FillLight>
      <crs:GreenHue>0</crs:GreenHue>
      <crs:GreenSaturation>0</crs:GreenSaturation>
      <crs:HasCrop>False</crs:HasCrop>
      <crs:HasSettings>True</crs:HasSettings>
      <crs:HighlightRecovery>0</crs:HighlightRecovery>
      <crs:HueAdjustmentAqua>0</crs:HueAdjustmentAqua>
      <crs:HueAdjustmentBlue>0</crs:HueAdjustmentBlue>
      <crs:HueAdjustmentGreen>0</crs:HueAdjustmentGreen>
      <crs:HueAdjustmentMagenta>0</crs:HueAdjustmentMagenta>
      <crs:HueAdjustmentOrange>0</crs:HueAdjustmentOrange>
      <crs:HueAdjustmentPurple>0</crs:HueAdjustmentPurple>
      <crs:HueAdjustmentRed>0</crs:HueAdjustmentRed>
      <crs:HueAdjustmentYellow>0</crs:HueAdjustmentYellow>
      <crs:LuminanceAdjustmentAqua>0</crs:LuminanceAdjustmentAqua>
      <crs:LuminanceAdjustmentBlue>0</crs:LuminanceAdjustmentBlue>
      <crs:LuminanceAdjustmentGreen>0</crs:LuminanceAdjustmentGreen>
      <crs:LuminanceAdjustmentMagenta>0</crs:LuminanceAdjustmentMagenta>
      <crs:LuminanceAdjustmentOrange>0</crs:LuminanceAdjustmentOrange>
      <crs:LuminanceAdjustmentPurple>0</crs:LuminanceAdjustmentPurple>
      <crs:LuminanceAdjustmentRed>0</crs:LuminanceAdjustmentRed>
      <crs:LuminanceAdjustmentYellow>0</crs:LuminanceAdjustmentYellow>
      <crs:LuminanceSmoothing>0</crs:LuminanceSmoothing>
      <crs:ParametricDarks>0</crs:ParametricDarks>
      <crs:ParametricHighlightSplit>75</crs:ParametricHighlightSplit>
      <crs:ParametricHighlights>0</crs:ParametricHighlights>
      <crs:ParametricLights>0</crs:ParametricLights>
      <crs:ParametricMidtoneSplit>50</crs:ParametricMidtoneSplit>
      <crs:ParametricShadowSplit>25</crs:ParametricShadowSplit>
      <crs:ParametricShadows>0</crs:ParametricShadows>
      <crs:RedHue>0</crs:RedHue>
      <crs:RedSaturation>0</crs:RedSaturation>
      <crs:Saturation>0</crs:Saturation>
      <crs:SaturationAdjustmentAqua>0</crs:SaturationAdjustmentAqua>
      <crs:SaturationAdjustmentBlue>0</crs:SaturationAdjustmentBlue>
      <crs:SaturationAdjustmentGreen>0</crs:SaturationAdjustmentGreen>
      <crs:SaturationAdjustmentMagenta>0</crs:SaturationAdjustmentMagenta>
      <crs:SaturationAdjustmentOrange>0</crs:SaturationAdjustmentOrange>
      <crs:SaturationAdjustmentPurple>0</crs:SaturationAdjustmentPurple>
      <crs:SaturationAdjustmentRed>0</crs:SaturationAdjustmentRed>
      <crs:SaturationAdjustmentYellow>0</crs:SaturationAdjustmentYellow>
      <crs:ShadowTint>0</crs:ShadowTint>
      <crs:Shadows>16</crs:Shadows>
      <crs:SharpenDetail>25</crs:SharpenDetail>
      <crs:SharpenEdgeMasking>0</crs:SharpenEdgeMasking>
      <crs:SharpenRadius>+1.0</crs:SharpenRadius>
      <crs:Sharpness>25</crs:Sharpness>
      <crs:SplitToningBalance>0</crs:SplitToningBalance>
      <crs:SplitToningHighlightHue>0</crs:SplitToningHighlightHue>
      <crs:SplitToningHighlightSaturation>0</crs:SplitToningHighlightSaturation>
      <crs:SplitToningShadowHue>0</crs:SplitToningShadowHue>
      <crs:SplitToningShadowSaturation>0</crs:SplitToningShadowSaturation>
      <crs:Temperature>5250</crs:Temperature>
      <crs:Tint>-1</crs:Tint>
      <crs:ToneCurve>
        <rdf:Seq>
          <rdf:li>0, 0</rdf:li>
          <rdf:li>32, 22</rdf:li>
          <rdf:li>64, 56</rdf:li>
          <rdf:li>128, 128</rdf:li>
          <rdf:li>192, 196</rdf:li>
          <rdf:li>255, 255</rdf:li>
        </rdf:Seq>
      </crs:ToneCurve>
      <crs:ToneCurveName>Medium Contrast</crs:ToneCurveName>
      <crs:Version>1.0</crs:Version>
      <crs:Vibrance>+25</crs:Vibrance>
      <crs:VignetteAmount>0</crs:VignetteAmount>
      <crs:WhiteBalance>As Shot</crs:WhiteBalance>
    </rdf:Description>
  </rdf:RDF>
</x:xmpmeta>
<?xpacket end='w'?>